X: 1
T:Green Trees of Athol -- Reel
M:2/4
L:1/16
R:reel
B:Ryan's Mammoth Collection
N:245
Z:Contributed by Ray Davies,  ray:davies99.freeserve.co.uk
K:D
vdDDF EDEf | gefd "4"edBe | dDDF EDEg | fdef (3.d.d.d.d2 |
 dDDF EDEf | gefd "4"edBe | dDDF EDEg | fdef (3.d.d.d.d2 H |]
|:vafdf abaf | gefd "4"edBe | afdf abaf | edef (3.d.d.d(df) |
   afdf abaf | gbfa edB"4"e | dDDF EDEg | fdef (3.d.d.d.d2 "_D.C.":|
